files/resources/svgs/general/m-squares-plus.svg

<svg width="20" height="20" viewBox="0 0 20 20" fill="none" xmlns="http://www.w3.org/2000/svg">
<path d="M2 4.25C2 3.00736 3.00736 2 4.25 2H6.75C7.99264 2 9 3.00736 9 4.25V6.75C9 7.99264 7.99264 9 6.75 9H4.25C3.00736 9 2 7.99264 2 6.75V4.25Z" fill="#0F172A"/>
<path d="M2 13.25C2 12.0074 3.00736 11 4.25 11H6.75C7.99264 11 9 12.0074 9 13.25V15.75C9 16.9926 7.99264 18 6.75 18H4.25C3.00736 18 2 16.9926 2 15.75V13.25Z" fill="#0F172A"/>
<path d="M11 4.25C11 3.00736 12.0074 2 13.25 2H15.75C16.9926 2 18 3.00736 18 4.25V6.75C18 7.99264 16.9926 9 15.75 9H13.25C12.0074 9 11 7.99264 11 6.75V4.25Z" fill="#0F172A"/>
<path d="M15.25 11.75C15.25 11.3358 14.9142 11 14.5 11C14.0858 11 13.75 11.3358 13.75 11.75V13.75H11.75C11.3358 13.75 11 14.0858 11 14.5C11 14.9142 11.3358 15.25 11.75 15.25H13.75V17.25C13.75 17.6642 14.0858 18 14.5 18C14.9142 18 15.25 17.6642 15.25 17.25V15.25H17.25C17.6642 15.25 18 14.9142 18 14.5C18 14.0858 17.6642 13.75 17.25 13.75H15.25V11.75Z" fill="#0F172A"/>
</svg>

<svg xmlns="http://www.w3.org/2000/svg" viewBox="0 0 20 20" fill="currentColor" aria-hidden="true">
  <path d="M2 4.25A2.25 2.25 0 014.25 2h2.5A2.25 2.25 0 019 4.25v2.5A2.25 2.25 0 016.75 9h-2.5A2.25 2.25 0 012 6.75v-2.5zM2 13.25A2.25 2.25 0 014.25 11h2.5A2.25 2.25 0 019 13.25v2.5A2.25 2.25 0 016.75 18h-2.5A2.25 2.25 0 012 15.75v-2.5zM11 4.25A2.25 2.25 0 0113.25 2h2.5A2.25 2.25 0 0118 4.25v2.5A2.25 2.25 0 0115.75 9h-2.5A2.25 2.25 0 0111 6.75v-2.5zM15.25 11.75a.75.75 0 00-1.5 0v2h-2a.75.75 0 000 1.5h2v2a.75.75 0 001.5 0v-2h2a.75.75 0 000-1.5h-2v-2z"/>
</svg>
